dist/img/feedback.svg

<svg width="22" height="23" viewBox="0 0 22 23" fill="none" xmlns="http://www.w3.org/2000/svg">
<path d="M7.24686 18.0962L10.1667 21.2806C10.6126 21.7669 11.3792 21.7669 11.8251 21.2806L14.7531 18.0872C14.9189 17.9065 15.1528 17.8036 15.3981 17.8036H19.7966C20.5387 17.8036 21.125 17.1479 21.125 16.3661V3.3125C21.125 2.53068 20.5387 1.875 19.7966 1.875H2.20344C1.4613 1.875 0.875 2.53068 0.875 3.3125V16.375C0.875 17.1568 1.4613 17.8125 2.20344 17.8125H6.60193C6.84716 17.8125 7.08113 17.9154 7.24686 18.0962ZM1.93548 3.3125C1.93548 3.1372 2.06303 3.00893 2.20344 3.00893H19.7966C19.9304 3.00893 20.0645 3.13896 20.0645 3.3125V16.375C20.0645 16.5503 19.937 16.6786 19.7966 16.6786H15.0617C14.7469 16.6786 14.4465 16.8105 14.2334 17.0423L11.6418 19.8624C11.2946 20.2402 10.6983 20.2395 10.352 19.8609L7.76696 17.0353C7.55385 16.8023 7.25264 16.6696 6.93691 16.6696H2.20344C2.06799 16.6696 1.93548 16.5468 1.93548 16.3661V3.3125Z" fill="#D1327F" stroke="#D1327F" stroke-width="0.25"/>
<path d="M10.8098 4.58541C10.8697 4.40115 11.1303 4.40115 11.1902 4.58541L12.3022 8.0077C12.329 8.09011 12.4057 8.1459 12.4924 8.1459H16.0908C16.2845 8.1459 16.3651 8.39382 16.2084 8.5077L13.2972 10.6228C13.2271 10.6737 13.1978 10.764 13.2245 10.8464L14.3365 14.2687C14.3964 14.453 14.1855 14.6062 14.0287 14.4923L11.1176 12.3772C11.0475 12.3263 10.9525 12.3263 10.8824 12.3772L7.97127 14.4923C7.81453 14.6062 7.60363 14.453 7.6635 14.2687L8.77547 10.8464C8.80224 10.764 8.77291 10.6737 8.70282 10.6228L5.79164 8.5077C5.6349 8.39382 5.71545 8.1459 5.9092 8.1459H9.50761C9.59425 8.1459 9.67104 8.09011 9.69782 8.0077L10.8098 4.58541Z" fill="#D1327F"/>
</svg>

<svg width="22" height="23" fill="none" xmlns="http://www.w3.org/2000/svg"><path d="m7.247 18.096 2.92 3.185a1.125 1.125 0 0 0 1.658 0l2.928-3.194c.166-.18.4-.283.645-.283h4.399c.742 0 1.328-.656 1.328-1.438V3.313c0-.782-.586-1.438-1.328-1.438H2.203c-.742 0-1.328.656-1.328 1.438v13.062c0 .782.586 1.438 1.328 1.438h4.399c.245 0 .48.102.645.283ZM1.935 3.312c0-.175.128-.303.268-.303h17.594c.133 0 .267.13.267.304v13.062c0 .175-.127.304-.267.304h-4.735a1.13 1.13 0 0 0-.829.363l-2.591 2.82a.875.875 0 0 1-1.29-.001l-2.585-2.826a1.125 1.125 0 0 0-.83-.365H2.203c-.135 0-.268-.123-.268-.304V3.313Z" fill="#D1327F" stroke="#D1327F" stroke-width=".25"/><path d="M10.81 4.585a.2.2 0 0 1 .38 0l1.112 3.423a.2.2 0 0 0 .19.138h3.599a.2.2 0 0 1 .117.362l-2.91 2.115a.2.2 0 0 0-.073.223l1.111 3.423a.2.2 0 0 1-.307.223l-2.911-2.115a.2.2 0 0 0-.236 0l-2.91 2.115a.2.2 0 0 1-.309-.223l1.112-3.423a.2.2 0 0 0-.072-.223L5.792 8.508a.2.2 0 0 1 .117-.362h3.599a.2.2 0 0 0 .19-.138l1.112-3.423Z" fill="#D1327F"/></svg>
